resources/svg/align-left-o.svg

<svg xmlns="http://www.w3.org/2000/svg" viewBox="0 0 15 15" fill="none"><path d="M0.5 0V15M3.5 3.5V6.5H10.5V3.5H3.5ZM3.5 8.5V11.5H14.5V8.5H3.5Z" stroke="black"/></svg>

<svg xmlns="http://www.w3.org/2000/svg" viewBox="0 0 15 15" fill="none"><path d="M.5 0v15m3-11.5v3h7v-3h-7zm0 5v3h11v-3h-11z" stroke="currentColor"/></svg>
